cssgg/search-loading.svg

<svg
  width="24"
  height="24"
  viewBox="0 0 24 24"
  fill="none"
  xmlns="http://www.w3.org/2000/svg"
>
  <path
    d="M8.55024 10.5503C8.55024 11.1026 8.10253 11.5503 7.55024 11.5503C6.99796 11.5503 6.55024 11.1026 6.55024 10.5503C6.55024 9.99801 6.99796 9.55029 7.55024 9.55029C8.10253 9.55029 8.55024 9.99801 8.55024 10.5503Z"
    fill="currentColor"
  />
  <path
    d="M10.5502 11.5503C11.1025 11.5503 11.5502 11.1026 11.5502 10.5503C11.5502 9.99801 11.1025 9.55029 10.5502 9.55029C9.99796 9.55029 9.55024 9.99801 9.55024 10.5503C9.55024 11.1026 9.99796 11.5503 10.5502 11.5503Z"
    fill="currentColor"
  />
  <path
    d="M13.5502 11.5503C14.1025 11.5503 14.5502 11.1026 14.5502 10.5503C14.5502 9.99801 14.1025 9.55029 13.5502 9.55029C12.998 9.55029 12.5502 9.99801 12.5502 10.5503C12.5502 11.1026 12.998 11.5503 13.5502 11.5503Z"
    fill="currentColor"
  />
  <path
    fill-rule="evenodd"
    clip-rule="evenodd"
    d="M16.2071 4.89344C19.0922 7.7786 19.313 12.3192 16.8693 15.4577C16.8846 15.4712 16.8996 15.4853 16.9142 15.4999L21.1568 19.7426C21.5473 20.1331 21.5473 20.7663 21.1568 21.1568C20.7663 21.5473 20.1331 21.5473 19.7426 21.1568L15.5 16.9141C15.4853 16.8995 15.4713 16.8846 15.4578 16.8693C12.3193 19.3131 7.77858 19.0923 4.89338 16.2071C1.76918 13.083 1.76918 8.01763 4.89338 4.89344C8.01757 1.76924 13.0829 1.76924 16.2071 4.89344ZM6.30759 14.7929C8.65074 17.1361 12.4497 17.1361 14.7929 14.7929C17.136 12.4498 17.136 8.6508 14.7929 6.30765C12.4497 3.96451 8.65074 3.96451 6.30759 6.30765C3.96445 8.6508 3.96445 12.4498 6.30759 14.7929Z"
    fill="currentColor"
  />
</svg>

<svg viewBox="0 0 24 24" xmlns="http://www.w3.org/2000/svg"><g><path d="M8.55 10.55c0 .55-.45 1-1 1 -.56 0-1-.45-1-1 0-.56.44-1.01 1-1.01 .55 0 1 .44 1 1Z"/><path d="M10.55 11.55c.55 0 1-.45 1-1 0-.56-.45-1.01-1-1.01 -.56 0-1 .44-1 1 0 .55.44 1 .99 1Z"/><path d="M13.55 11.55c.55 0 1-.45 1-1 0-.56-.45-1.01-1-1.01 -.56 0-1 .44-1 1 0 .55.44 1 1 1Z"/><path fill-rule="evenodd" d="M16.2 4.89c2.88 2.88 3.1 7.42.66 10.56 .01.01.03.02.04.04l4.24 4.24c.39.39.39 1.02 0 1.41 -.4.39-1.03.39-1.42 0l-4.25-4.25c-.02-.02-.03-.03-.05-.05 -3.14 2.44-7.68 2.22-10.57-.67 -3.13-3.13-3.13-8.19 0-11.32 3.12-3.13 8.18-3.13 11.31 0Zm-9.9 9.89c2.34 2.34 6.14 2.34 8.48 0 2.34-2.35 2.34-6.15 0-8.49 -2.35-2.35-6.15-2.35-8.49 0 -2.35 2.34-2.35 6.14 0 8.48Z"/></g></svg>
